X:1
T:Easter Bells
T:James Milton Black
T:Easter Bells
T:Public Domain
T:Public Domain
C:James Milton Black
Z:Public Domain
%%score ( 1 2 ) ( 3 4 )
L:1/8
M:4/4
K:G
V:1 treble 
V:2 treble 
V:3 bass 
V:4 bass 
V:1
 G>[GA] | [GB]2 D2 [CE]>[B,D] [DG]>[DA] | [GB]4 [DG]2 [DG]>[DG] | [FA]2 [Fc]2 [GB]>[DA] [DG]>[DA] | %4
w: 1.~O the|ter bells are glad- ly ring-|Let the whole world|join the hap- py lay, Let|
w: 2.~O the|ter bells are glad- ly ring-|Hear the shouts a-|long the King’s high- way; Songs|
w: 3.~O the|ter bells are glad- ly ring-|For the night of|death has passed a- way, Lo!|
 [DB]6 [DG]>[DA] | [GB]2 D2 [CE]>[B,D] [DG]>[DA] | [GB]4 [DG]2 [DG]>[DG] | %7
w: the hills and|vales break forth in sing- ing,|the Lord of Life,|
w: of praise the|child- ren, too, are sing- ing,|the Lord of Life,|
w: the gates of|morn are o- pen swing- ing,|the Lord of Life,|
 [FA]2 [Ac]2 [GB]>[FA] [DE]>[DF] | [DG]6 ||"^Refrain" [GB]>[GB] | [GB]4 [DG]2 [Gd]>[Gd] | %11
w: is ris’n to- day. * *||||
w: is ris’n to- day. * *||||
w: is ris’n to- day. * *||||
 [Gd]4 [GB]2 [GB]>[GB] | [Fc]2 [FA]2 [DF]>[DE] D>[Dc] | [DB]6 [GB]>[GB] | [GB]4 [DG]2 [Gd]>[Gd] | %15
w: ||||
w: ||||
w: ||||
 [Gd]4 [GB]2 [DG]>[DG] | [FA]2 [Ac]2 [GB]>[FA] [DE]>[DF] | [DG]6 |] %18
w: |||
w: |||
w: |||
V:2
 G3/2 x/ | x2 D2 x4 | x8 | x8 | x8 | x2 D2 x4 | x8 | x8 | x6 || x2 | x8 | x8 | x6 D3/2 x/ | x8 | %14
w: Eas-|ing,||||Christ,|||||||||
w: Eas-|ing,||||Christ,|||||||||
w: Eas-|ing,||||Christ,|||||||||
 x8 | x8 | x8 | x6 |] %18
w: ||||
w: ||||
w: ||||
V:3
 [G,B,]>[G,C] | [G,D]2 [G,B,]2 G,>G, [G,B,]>[G,C] | [G,D]4 [G,B,]2 [G,B,]>[G,B,] | %3
w: ~ ~|~ ~ ~ ~ ~ ~|~ ~ ~ ~|
 [D,D]2 [D,D]2 [D,D]>[D,C] [D,B,]>[D,A,] | G,6 [G,B,]>[G,C] | [G,D]2 [G,B,]2 G,>G, [G,B,]>[G,C] | %6
w: ~ ~ ~ ~ ~ ~|~ ~ ~|~ ~ ~ ~ ~ ~|
 [G,D]4 [G,B,]2 [G,B,]>[G,B,] | [D,D]2 [D,D]2 [D,D]>[D,D] [D,C]>[D,C] | [G,,G,B,]6 || [G,D]>[G,D] | %10
w: ~ ~ ~ ~|~ ~ Hal- le- lu- jah!|Hal-|le- lu-|
 [G,D]4 [G,B,]2 [G,B,]>[G,B,] | [G,B,]4 [G,D]2 [G,D]>[G,D] | %12
w: jah! Let the whole|world join the hap-|
 [D,D]2 [D,D]2 [D,A,]>[D,G,] [D,F,]>[D,F,] | G,6 [G,D]>[G,D] | [G,D]4 [G,B,]2 [G,B,]>[G,B,] | %15
w: py lay, Hal- le- lu- jah!|Hal- le- lu-|Christ, the Lord of|
 [G,B,]4 [G,D]2 [G,B,]>[G,B,] | [D,D]2 [D,D]2 [D,D]>[D,D] [D,C]>[D,C] | [G,,G,B,]6 |] %18
w: Life, is ris’n to-|day. * * * * *||
V:4
 x2 | x4 G,>G, x2 | x8 | x8 | G,6 x2 | x4 G,>G, x2 | x8 | x8 | x6 || x2 | x8 | x8 | x8 | G,6 x2 | %14
w: |~ ~|||~|~ ~||||||||jah!|
 x8 | x8 | x8 | x6 |] %18
w: ||||

